!!!COM: Palestrina, Giovanni Perluigi da
!!!OPR: Quam pulchra es
!!!OTL: Agnus II
**kern	**kern	**kern	**kern	**kern
*Ibass	*Itenor	*Itenor	*Icalto	*Icant
!Bassus	!Tenor 2	!Tenor 1	!Altus	!Cantus
*clefF4	*clefGv2	*clefGv2	*clefG2	*clefG2
*k[]	*k[]	*k[]	*k[]	*k[]
*C:ion	*C:ion	*C:ion	*C:ion	*C:ion
*M4/2	*M4/2	*M4/2	*M4/2	*M4/2
=1	=1	=1	=1	=1
0r	0r	0r	1r	1g
.	.	.	1c	1cc
=2	=2	=2	=2	=2
0r	0r	0r	1f	2r
.	.	.	.	2cc
.	.	.	2r	2.ff
.	.	.	2f	.
.	.	.	.	4ee
=3	=3	=3	=3	=3
0r	0r	1G	2.b-	4dd
.	.	.	.	4cc
.	.	.	.	2dd
.	.	.	4a	.
.	.	1c	4g	2.ee
.	.	.	4f	.
.	.	.	2g	.
.	.	.	.	4ff
=4	=4	=4	=4	=4
0r	0r	2r	4e	4gg
.	.	.	4f	4ff
.	.	2c	4g	4ee
.	.	.	8f	4dd
.	.	.	8g	.
.	.	2.f	[1a	2cc
.	.	.	.	[2ff
.	.	4e	.	.
=5	=5	=5	=5	=5
0r	0r	4d	1a]	4ff]
.	.	4c	.	4ee
.	.	2d	.	4dd
.	.	.	.	4cc
.	.	2B	[1g	2dd
.	.	[2c	.	[2ee
=6	=6	=6	=6	=6
0r	1r	4c]	0g]	4ee]
.	.	4d	.	4dd
.	.	4e	.	1cc
.	.	4c	.	.
.	1G	1d	.	.
.	.	.	.	2b
=7	=7	=7	=7	=7
1C	1c	1e	2r	0cc
.	.	.	2g	.
1F	2r	2.f	2a	.
.	2c	.	2cc	.
.	.	4g	.	.
=8	=8	=8	=8	=8
2r	2.f	2a	4cc	0r
.	.	.	4b	.
2F	.	2.f	4a	.
.	4e	.	4g	.
2.B-	4d	.	1f	.
.	4c	4e	.	.
.	2d	4d	.	.
4A	.	4c	.	.
=9	=9	=9	=9	=9
4G	2B	2d	1r	1g
4F	.	.	.	.
2G	2.e	1g	.	.
2E	.	.	1c	1cc
.	4d	.	.	.
2F	[2c	[2a	.	.
=10	=10	=10	=10	=10
1D	2c]	2a]	1f	2r
.	2B	4g	.	2dd
.	.	4f	.	.
2C	1c	2.e	2r	2.ee
2c	.	.	2g	.
.	.	4d	.	8dd
.	.	.	.	8ee
=11	=11	=11	=11	=11
2A	1r	4c	2a	2ff
.	.	4d	.	.
2c	.	4e	2g	2ee
.	.	4f	.	.
1G	2r	1g	2.b	2dd
.	2g	.	.	[2gg
.	.	.	8a	.
.	.	.	8b	.
=12	=12	=12	=12	=12
0r	2e	1r	2cc	2gg]
.	2g	.	2b	2dd
.	1d	2r	1a	4ff
.	.	.	.	4ee
.	.	2d	.	4dd
.	.	.	.	4cc
=13	=13	=13	=13	=13
0r	0r	2.e	1g	2b
.	.	.	.	1cc
.	.	8d	.	.
.	.	8e	.	.
.	.	2f	2a	.
.	.	2e	[2g	2g
=14	=14	=14	=14	=14
1r	2r	1d	2g]	1a
.	2d	.	2f#	.
2r	2.e	1r	2g	1g
2c	.	.	2e	.
.	8d	.	.	.
.	8e	.	.	.
=15	=15	=15	=15	=15
2A	2f	2r	2a	1.cc
2c	2e	2c	4g	.
.	.	.	4f	.
1G	1d	2d	2.g	.
.	.	2G	.	2b
.	.	.	4f	.
=16	=16	=16	=16	=16
2r	1c	4A	2e	1a
.	.	4B	.	.
2F	.	4c	2f	.
.	.	4A	.	.
2G	1r	2B	2d	1g
2C	.	2c	2e	.
=17	=17	=17	=17	=17
4D	2r	1A	1d	0r
4E	.	.	.	.
4F	2f	.	.	.
4D	.	.	.	.
2E	2g	2G	2r	.
[2F	2c	2A	2f	.
=18	=18	=18	=18	=18
2F]	2d	2B	2g	0r
2E	2e	1c	2c	.
1D	2f	.	4d	.
.	.	.	4e	.
.	2d	2B	4f	.
.	.	.	4d	.
=19	=19	=19	=19	=19
2C	4g	0c	2e	1r
.	4e	.	.	.
4F	1a	.	1f	.
4G	.	.	.	.
4A	.	.	.	1cc
4B	.	.	.	.
[2c	2g	.	2e	.
=20	=20	=20	=20	=20
2c]	1g	2G	1d	2dd
2B	.	1g	.	2g
1A	2r	.	1c	4a
.	.	.	.	4b
.	2c	2f#	.	4cc
.	.	.	.	4a
=21	=21	=21	=21	=21
2G	2d	1g	2r	2b
2E	2c	.	2g	1cc
2F	2A	2r	2a	.
2G	2B	2d	2g	2b
=22	=22	=22	=22	=22
2A	2c	2c	2e	1a
2F	2.d	2A	2f	.
2.G	.	1B	1d	[1g
.	4c	.	.	.
.	4B	.	.	.
4F	4A	.	.	.
=23	=23	=23	=23	=23
4E	2G	1e	2r	1g]
4D	.	.	.	.
2C	1c	.	2.g	.
1G	.	2d	.	2r
.	.	.	4a	.
.	2B	[2g	2b	2dd
=24	=24	=24	=24	=24
0r	2c	2g]	1a	2ee
.	2d	2f#	.	2a
.	2G	1g	1g	4b
.	.	.	.	4cc
.	2g	.	.	4dd
.	.	.	.	4b
=25	=25	=25	=25	=25
0r	2a	0r	2r	2cc
.	2d	.	2f	2dd
.	4e	.	2g	2b
.	4f	.	.	.
.	4g	.	2c	2ee
.	4e	.	.	.
=26	=26	=26	=26	=26
0r	2f	0r	2d	4dd
.	.	.	.	4cc
.	1g	.	4e	4b
.	.	.	4f	4a
.	.	.	4g	2b
.	.	.	4e	.
.	2f	.	[2a	[2cc
=27	=27	=27	=27	=27
0r	1e	0r	2a]	2cc]
.	.	.	1g	2g
.	1d	.	.	1a
.	.	.	2f#	.
=28	=28	=28	=28	=28
1r	1G	2r	2.g	1b
.	.	1g	.	.
.	.	.	4f	.
1c	1r	.	4e	1ee
.	.	.	4f	.
.	.	2e	4g	.
.	.	.	8f	.
.	.	.	8g	.
=29	=29	=29	=29	=29
2A	1r	1f	2a	2cc
1B-	.	.	2d	1dd
.	2r	2d	1r	.
2G	2g	[2e	.	2b-
=30	=30	=30	=30	=30
2.A	2e	4e]	0r	2.cc
.	.	4d	.	.
.	1f	1c	.	.
4G	.	.	.	4b-
2F	.	.	.	2a
2G	2d	2B	.	2b
=31	=31	=31	=31	=31
1C	2.e	1c	2r	1g
.	.	.	2g	.
.	4d	.	.	.
1r	4c	1r	2e	1cc
.	4B	.	.	.
.	4A	.	[2f	.
.	8B	.	.	.
.	8c	.	.	.
=32	=32	=32	=32	=32
2r	2.d	1r	2f]	2a
1G	.	.	2d	1b
.	4c	.	.	.
.	2B	1g	2.e	.
2E	2c	.	.	2g
.	.	.	4d	.
=33	=33	=33	=33	=33
2F	1A	1f	2c	1a
2D	.	.	2d	.
2E	1r	2.e	2B	[1g
2C	.	.	[2e	.
.	.	4d	.	.
=34	=34	=34	=34	=34
2.E	0r	4c	4e]	1g]
.	.	4B	4d	.
.	.	2e	1c	.
4F	.	.	.	.
1G	.	1d	.	2r
.	.	.	2B	[2gg
=35	=35	=35	=35	=35
1C	1c	2.e	2c	2gg]
.	.	.	2g	2ee
.	.	4d	.	.
1r	2A	2c	2a	1ff
.	[2B-	2d	2f	.
=36	=36	=36	=36	=36
0r	2B-]	2r	4g	2dd
.	.	.	4f	.
.	2G	2g	4e	2.ee
.	.	.	4d	.
.	2.A	2e	1c	.
.	.	.	.	4dd
.	.	[2f	.	[2cc
.	4G	.	.	.
=37	=37	=37	=37	=37
1r	2F	2f]	2r	2cc]
.	2G	2d	1g	2b
2r	1c	4e	.	1cc
.	.	4f	.	.
2c	.	4g	2e	.
.	.	4e	.	.
=38	=38	=38	=38	=38
2A	1r	2a	1f	2r
1B-	.	2d	.	1dd
.	2r	2f	2d	.
2G	2g	4e	[2e	2b-
.	.	4d	.	.
=39	=39	=39	=39	=39
2.A	1e	1c	4e]	1cc
.	.	.	4d	.
.	.	.	1c	.
4G	.	.	.	.
2F	2f	1d	.	2a
2G	2d	.	2B	[2dd
=40	=40	=40	=40	=40
1C	2.e	1g	2c	4dd]
.	.	.	.	4cc
.	.	.	1g	1cc
.	4c	.	.	.
1G	1d	2r	.	.
.	.	[2g	2d	2b
=41	=41	=41	=41	=41
1C	[0c	2g]	4e	[0cc
.	.	.	4f	.
.	.	2e	4g	.
.	.	.	4e	.
[1F	.	2.f	2.a	.
.	.	4g	4g	.
=42	=42	=42	=42	=42
2F]	1c_	2a	2f	1cc_
2E	.	2g	2g	.
1F	1c_	1f	1a	1cc_
=43	=43	=43	=43	=43
0C	0c]	0e	0g	0cc]
==	==	==	==	==
*-	*-	*-	*-	*-
!!!CDT: 1525/^1526/-1594/2/2
!!!OCY: Italia
!!!AGN: Mass (Parody)
!!!AST: renaissance, vocal
!!!ASW: Motet 1532 (Johannes Lupi)
!!!PWK: Masses, Book 6
!!!RNB: Cadence finals: G
!!!YOR: Le Opere Complete, v. 21, p. 73
!!!YOO: Rome, Italy: Fratelli Scalera
!!!END: 1992//
!!!EED: John Miller
!!!YEC: Copyright 2000, John Miller
!!!YEN: United States of America
!!!YEM: Rights to all derivative electronic formats reserved.
!!!YEM: Refer to licensing agreement for further details.
!!!YEM: This file must be accompanied by the licensing agreement.
!!!YEM: A copy of the licensing agreement may be found at http://www.music-cog.ohio-state.edu/HumdrumDatabases/Palestrina/license.txt
!!!EMD: converted to Humdrum by Bret Aarden
